X:8
T: SCHLAF KINDLEIN FESTE
N: K0029
O: Europa, Mitteleuropa, Deutschland
R: Kinder -, Wiegen - Lied
M: 2/4
L: 1/8
K: F
 | A2GG | F2C
C | AAGG | F2C
F | AAAc | BAG
F | AAAc | BAG2
A2GG | F2C2

